public/svg_assets/b4Folder.svg

<svg width="178" height="142" viewBox="0 0 178 142" fill="none" xmlns="http://www.w3.org/2000/svg">
<path fill-rule="evenodd" clip-rule="evenodd" d="M88.75 17.75H159.75C169.512 17.75 177.5 25.7375 177.5 35.5V124.25C177.5 134.012 169.512 142 159.75 142H17.75C7.9875 142 0 134.012 0 124.25L0.0887499 17.75C0.0887499 7.9875 7.9875 0 17.75 0H71L88.75 17.75ZM17.75 35.5V124.25H159.75V35.5H17.75Z" fill="#A1A1A1"/>
</svg>

<svg width="178" height="142" fill="none" xmlns="http://www.w3.org/2000/svg">
    <path fill-rule="evenodd" clip-rule="evenodd" d="M88.75 17.75h71c9.762 0 17.75 7.988 17.75 17.75v88.75c0 9.762-7.988 17.75-17.75 17.75h-142C7.988 142 0 134.012 0 124.25l.089-106.5C.089 7.988 7.988 0 17.75 0H71l17.75 17.75Zm-71 17.75v88.75h142V35.5h-142Z" fill="#A1A1A1"/>
</svg>
